X: 1431
T: Flower Of The Highlands
C:Ted Konig, 1941 - 2019
B: australian traditional tunes wiki
M:3/4
L:1/8
Q: 1/4=100
K:D
V:1 
A FE|"D"D3E FA|"D7"F3D FA|"G"B3G Bd|"D"A4DE|"Bm"F3E FB|"D"AFD2EF|"C"G3G FG|"A7"E3A FE|
"D"D3E FA|"D7"F3D FA|"G"B3G Bd|"D"A4Bc|"G"d3e dB|"D"Ad3DE|F3A "A7"FE|"D"D4Bc||
"Bm"d3c de|"A"cA3dc|"G"B3G Bd|"D"A4DE|"Bm"F3E FB|"D"AFD2EF|"C"G2G2FG|"A7"E3A FE|
"D"D3E FA|"D7"F3D FA|"G"B3G Bd|"D"A4Bc|"G"d3e dB|"D"Ad3DE|F3A "A7"FE|"D"D4||
% abcbook-tune_id 6342d53aabfb9f0e57526cc8


% abcbook-boost 0
% abcbook-tablature 
% abcbook-transpose 
% abcbook-lastupdated 1665324364780
% abcbook-soundfonts 
% abcbook-repeats 1
% NFF Book 2015

